X:90
T: Molly Bawn
S: J.Kelly - P.O'Brien
Z: B.Black
R: reel
M: 4/4
L: 1/8
K: Ador
Aeed e2 dc | BGdG eGBG | Aeed e2 ef | gedB edcB |
Aeed e2 dc | BGdG eGBG | Aeed e2 ef | gedB cA A2 :|
a2 ea agab | geef g3 g | a2 ea agab | gedB cA A2 |
aece abba | geef g3 a | bc'ba geef | gedB cA A2 :|
